X: 196
T: The Silver Spire
T:John Brennan's
R:reel
M:C|
K:D
"D"DF~F2 DFAc|dcde fdAF|"G"G2BG "D"FADF|"G"GFED "A" CEA,C|
"D"D2FE DFAc|dcde fdAF|"G"GABG "D"FADF|1"A" EDCE "D"D3C:|2 "A" EDCE "D"D2CB,||
|:"A" A,B,CD EFGE|"D"FDEF "G"GABc|dBBA Bcde|"D"fdgf "A"e2dc|
"D"defd "A"ceAc|"G"dcdB "D"ADFA|"G"GABG "D"FADF|1 "A"EDCE "D"D2CB,:|2"A" EDCE "D"D3C||


